themes/asg/static/images/sponsors/g10.svg

<svg width="78" height="36" viewBox="0 0 78 36" fill="none" xmlns="http://www.w3.org/2000/svg">
<path d="M60.6553 0.822266C51.142 0.822266 43.4355 8.59185 43.4355 18.1685C43.4355 27.7516 51.142 35.5146 60.6553 35.5146C70.1621 35.5146 77.8751 27.7516 77.8751 18.1685C77.8751 8.58533 70.1686 0.822266 60.6553 0.822266ZM60.6553 29.3303C54.5354 29.3303 49.5748 24.3332 49.5748 18.1685C49.5748 12.0037 54.5354 7.00662 60.6553 7.00662C66.7751 7.00662 71.7357 12.0037 71.7357 18.1685C71.7357 24.3332 66.7751 29.3303 60.6553 29.3303Z" fill="white"/>
<path d="M33.3143 9.38232L29.0405 13.7342L33.804 18.3062L29.0787 22.8459L33.3461 27.1978L42.0717 18.3127L33.3143 9.38232Z" fill="white"/>
<path d="M17.3557 35.7061C13.046 35.7061 9.13938 34.2008 5.73975 31.2231C1.9306 27.8723 0 23.4482 0 18.0883C0 13.3304 1.74856 9.19427 5.1937 5.79768C8.60633 2.42071 12.773 0.706055 17.5637 0.706055C22.3219 0.706055 26.4561 2.44035 29.8492 5.85658L25.338 10.3985C23.1474 8.19951 20.6058 7.12621 17.5572 7.12621C14.4501 7.12621 11.863 8.19296 9.65288 10.3854C7.44279 12.5647 6.37025 15.0843 6.37025 18.0948C6.37025 21.5699 7.53381 24.2794 9.9259 26.3867C12.1555 28.3369 14.5866 29.2924 17.3492 29.2924C20.5083 29.2924 23.1214 28.2322 25.351 26.0464L29.8037 30.6472C26.378 34.0045 22.1919 35.7061 17.3557 35.7061Z" fill="white"/>
</svg>

<svg width="78" height="36" fill="none" xmlns="http://www.w3.org/2000/svg"><path d="M60.655.822c-9.513 0-17.22 7.77-17.22 17.347 0 9.583 7.707 17.346 17.22 17.346 9.507 0 17.22-7.763 17.22-17.346 0-9.584-7.706-17.347-17.22-17.347zm0 28.508c-6.12 0-11.08-4.997-11.08-11.161 0-6.165 4.96-11.162 11.08-11.162s11.08 4.997 11.08 11.162c0 6.164-4.96 11.161-11.08 11.161zM33.314 9.382l-4.273 4.352 4.763 4.572-4.725 4.54 4.267 4.352 8.726-8.885-8.758-8.93z" fill="#fff"/><path d="M17.356 35.706c-4.31 0-8.217-1.505-11.616-4.483C1.93 27.873 0 23.448 0 18.088c0-4.758 1.749-8.894 5.194-12.29C8.606 2.42 12.773.706 17.564.706c4.758 0 8.892 1.734 12.285 5.15L25.338 10.4c-2.19-2.2-4.732-3.273-7.78-3.273-3.108 0-5.695 1.067-7.905 3.26-2.21 2.179-3.283 4.698-3.283 7.709 0 3.475 1.164 6.184 3.556 8.292 2.23 1.95 4.66 2.905 7.423 2.905 3.16 0 5.772-1.06 8.002-3.246l4.453 4.601c-3.426 3.358-7.612 5.06-12.448 5.06z" fill="#fff"/></svg>
